X: 5
T: The Gallopede
R: barndance
M: 4/4
L: 1/8
K: Gmaj
|: dc |B2 Bc A2 AB | G2 G2 G2 AB | c2 cd B2 Bc | A2 A2 A2 dc |
B2 Bc A2 AB | G2 G2 G2 AB | cBAG FGAB | G2 G2 G2 :|
|: dc |B2 gf e2 ed | dcBd A2 dc | B2 gf edcB | A2 A2 A2 dc |
B2 gf e2 ed | dcBd A2 dc | BdcB AcBA | G2 G2 G2 :|
|: Bc |d2 d2 d2 g2 | d2 d2 d2 g2 | d2 d2 edcB | c2 A2 A2 Bc |
d2 d2 d2 g2 | d2 d2 d2 g2 | d2 Bc dcBA | G2 G2 G2 :|

